X:131
%%etbk:tnset id:46,pos:3,rep:3x,ant:
%%etbk:wsite http://www.thesession.org/tunes/display/426
%%etbk:color #ffffcc
%%etbk:pldat 2016-09-06T15:50,2016-08-05T17:00,2016-07-29T16:03,2016-07-28T18:02,2016-04-12T16:47,2016-01-26T17:57,2016-01-20T17:29,2016-01-13T16:56,2016-01-03T14:42,2016-01-02T13:59,2015-04-22T15:38,2015-03-24T16:15,2015-01-29T18:37,2015-01-26T19:13,2015-01-13T17:43,2015-01-08T19:08,2015-01-06T19:33,2014-12-31T14:48,2014-12-27T14:40,2014-12-18T19:00,2014-12-17T18:12,2014-12-07T13:43,2014-07-05T14:18,2014-05-20T16:47,2014-05-17T20:17,2014-04-27T17:02,2014-04-09T17:11,2014-04-08T16:58,2014-03-22T15:43,2014-03-15T16:57,2014-02-14T16:04,2013-11-26T16:59,2013-11-25T19:23,2013-11-23T15:51
T: Ormond Sound
Z: Piano Box Version by Martin Fleischmann
H: Created 2013-02-19 /  Last Modified 2016-04-12
M: 4/4
L: 1/8
R: reel
K: Ador
|: "am"!1!A2 !5!ed !2!B!5!e!4!d!2!B | "G"!1!A2!2!G!2!G !3!A!2!G!1!E!2!G | "am"!1!A2!5!ed !2!B!1!d!2!ef  | "em"!4!ggga !4!ged!4!g | 
"am"!2!e!1!A!2!A!1!A !2!B!5!e!4!d!2!B | "G"!1!A!3!G!1!E!2!F !3!G3 !4!A| "am"!1!E2!2!A!2!A !1!G!2!A!3!B!1!d| "em"!4!g!2!e!1!d!2!B "am"!1!A4:||
|: "am"!2!efge !5!agfg | !2!e2!5!ag !2!e!1!d!2!B!1!d | !2!egfa !4!g3e | "G"!1!d2!4!g!2!e !1!d!2!B!1!G!2!B |
"am"!3!c3!1!A !4!d3!1!B | !2!efge !5!a2 !3!ga | "em"!5!b!3!g!2!g!3!g !4!agab | !3!g!2!e!1!d!2!B "am"!1!A4:|


